src/images_karasa_jaga_svg/cmd/32/arrowshapes.notched-right-arrow.svg

<svg height="32" viewBox="0 0 32 32" width="32" xmlns="http://www.w3.org/2000/svg" xmlns:xlink="http://www.w3.org/1999/xlink"><linearGradient id="a" gradientTransform="matrix(-.732958 0 0 .4444445 84.14204 35.863824)" gradientUnits="userSpaceOnUse" x1="21.971136" x2="21.971136" y1="162.30638" y2="-35.6936"><stop offset="0" stop-color="#fff"/><stop offset=".45454547" stop-color="#fff"/><stop offset=".81818181" stop-color="#f1f1f1"/><stop offset=".90909094" stop-color="#eaeaea"/><stop offset="1" stop-color="#dfdfdf"/></linearGradient><linearGradient id="b" gradientUnits="userSpaceOnUse" x1="8.037109" x2="115.99953" y1="63.679485" y2="63.679485"><stop offset="0" stop-color="#7c9fcf"/><stop offset=".5" stop-color="#7c9ece"/><stop offset="1" stop-color="#7b9dcf"/></linearGradient><g fill-rule="evenodd" transform="scale(.25)"><path d="m70.986328 18.269531c-3.497952-.573484-6.949219 1.809128-6.949219 5.730469v20h-50.5c-2.876134 0-5.4999996 2.407767-5.4999996 5.4375a4.0006322 4.0006322 0 0 0 1.1171875 2.771484l11.3339841 11.791016-11.3339841 11.791016a4.0006322 4.0006322 0 0 0 -1.1171875 2.771484c0 3.029736 2.6238596 5.4375 5.4999996 5.4375h50.5v18.9375c-.0461 2.8895 1.719 4.70653 3.6875 5.65039 1.968501.94386 5.102409.87221 7.111329-1.13672l39.591792-39.591795c2.14542-2.145232 2.05495-5.665767-.0293-7.75l-40.164055-40.162109c-.890129-.890129-2.081087-1.486412-3.248047-1.677735z" fill="url(#b)"/><path d="m71.407018 22.775148 40.162352 40.162352c.58761.587606.59709 1.527908.0312 2.09375l-39.59277 39.59277c-1.488665 1.48867-3.995647.003-3.96973-1.62146v-23.00256h-54.5c-.831 0-1.5-.63728-1.5-1.4375l14-14.5625-14-14.5625c0-.800222.669-1.4375 1.5-1.4375h54.5v-23.999723c0-1.490389 2.087963-2.506064 3.368898-1.225129z" fill="url(#a)"/></g></svg>

<?xml version="1.0" encoding="UTF-8" standalone="no"?>
<!-- Created with Inkscape (http://www.inkscape.org/) -->

<svg
   xmlns:dc="http://purl.org/dc/elements/1.1/"
   xmlns:cc="http://creativecommons.org/ns#"
   xmlns:rdf="http://www.w3.org/1999/02/22-rdf-syntax-ns#"
   xmlns:svg="http://www.w3.org/2000/svg"
   xmlns="http://www.w3.org/2000/svg"
   xmlns:xlink="http://www.w3.org/1999/xlink"
   xmlns:sodipodi="http://sodipodi.sourceforge.net/DTD/sodipodi-0.dtd"
   xmlns:inkscape="http://www.inkscape.org/namespaces/inkscape"
   version="1.1"
   id="svg2"
   width="128"
   height="128"
   viewBox="0 0 128 128"
   sodipodi:docname="arrowshapes.notched-right-arrow.svg"
   inkscape:export-filename="/home/rizmut/Dokumen/Rizmut/Github/libreoffice-style-karasa-jaga/build/images_karasa_jaga/cmd/32/arrowshapes.notched-right-arrow.png"
   inkscape:export-xdpi="24"
   inkscape:export-ydpi="24"
   inkscape:version="0.92.3 (unknown)">
  <metadata
     id="metadata8">
    <rdf:RDF>
      <cc:Work
         rdf:about="">
        <dc:format>image/svg+xml</dc:format>
        <dc:type
           rdf:resource="http://purl.org/dc/dcmitype/StillImage" />
        <dc:title></dc:title>
      </cc:Work>
    </rdf:RDF>
  </metadata>
  <defs
     id="defs6">
    <inkscape:perspective
       id="perspective27"
       inkscape:persp3d-origin="64 : 42.666667 : 1"
       inkscape:vp_z="128 : 64 : 1"
       inkscape:vp_y="0 : 1000 : 0"
       inkscape:vp_x="0 : 64 : 1"
       sodipodi:type="inkscape:persp3d" />
    <linearGradient
       id="linearGradient3369">
      <stop
         id="stop3372"
         offset="0"
         style="stop-color:#ffffff;stop-opacity:1;" />
      <stop
         style="stop-color:#ffffff;stop-opacity:1;"
         offset="0.45454547"
         id="stop3374" />
      <stop
         style="stop-color:#f1f1f1;stop-opacity:1;"
         offset="0.81818181"
         id="stop3376" />
      <stop
         id="stop3378"
         offset="0.90909094"
         style="stop-color:#eaeaea;stop-opacity:1;" />
      <stop
         id="stop3384"
         offset="1"
         style="stop-color:#dfdfdf;stop-opacity:1;" />
    </linearGradient>
    <linearGradient
       id="linearGradient7422">
      <stop
         style="stop-color:#7c9fcf;stop-opacity:1"
         offset="0"
         id="stop7424" />
      <stop
         id="stop5348"
         offset="0.5"
         style="stop-color:#7c9ece;stop-opacity:1" />
      <stop
         id="stop7426"
         offset="1"
         style="stop-color:#7b9dcf;stop-opacity:1" />
    </linearGradient>
    <linearGradient
       y2="388.95178"
       x2="399.77466"
       y1="1324.7792"
       x1="405.94968"
       gradientTransform="matrix(0.08097132,0,0,0.07807154,182.74486,-6.9021226)"
       gradientUnits="userSpaceOnUse"
       id="linearGradient2330"
       xlink:href="#linearGradient7422"
       inkscape:collect="always" />
    <linearGradient
       y2="-35.6936"
       x2="21.971136"
       y1="162.30638"
       x1="21.971136"
       gradientTransform="matrix(-0.732958,0,0,0.4444445,84.14204,35.863824)"
       gradientUnits="userSpaceOnUse"
       id="linearGradient2360"
       xlink:href="#linearGradient3369"
       inkscape:collect="always" />
    <linearGradient
       inkscape:collect="always"
       xlink:href="#linearGradient7422"
       id="linearGradient853"
       x1="8.0371094"
       y1="63.679485"
       x2="115.99953"
       y2="63.679485"
       gradientUnits="userSpaceOnUse" />
  </defs>
  <sodipodi:namedview
     pagecolor="#ffffff"
     bordercolor="#666666"
     borderopacity="1"
     objecttolerance="10"
     gridtolerance="10"
     guidetolerance="10"
     inkscape:pageopacity="0"
     inkscape:pageshadow="2"
     inkscape:window-width="1366"
     inkscape:window-height="706"
     id="namedview4"
     showgrid="true"
     inkscape:snap-page="true"
     inkscape:snap-global="false"
     inkscape:zoom="1.4142136"
     inkscape:cx="61.810942"
     inkscape:cy="36.148389"
     inkscape:window-x="0"
     inkscape:window-y="0"
     inkscape:window-maximized="0"
     inkscape:current-layer="svg2">
    <inkscape:grid
       type="xygrid"
       id="grid837"
       spacingx="4"
       spacingy="4"
       empspacing="2" />
  </sodipodi:namedview>
  <path
     style="fill:url(#linearGradient853);fill-opacity:1;fill-rule:evenodd;stroke:none;stroke-width:8;stroke-linecap:round;stroke-linejoin:round;stroke-miterlimit:4;stroke-dasharray:none;stroke-opacity:1"
     d="M 70.986328,18.269531 C 67.488376,17.696047 64.037109,20.078659 64.037109,24 v 20 h -50.5 c -2.876134,0 -5.4999996,2.407767 -5.4999996,5.4375 a 4.0006322,4.0006322 0 0 0 1.1171875,2.771484 L 20.488281,64 9.1542969,75.791016 A 4.0006322,4.0006322 0 0 0 8.0371094,78.5625 c 0,3.029736 2.6238596,5.4375 5.4999996,5.4375 h 50.5 v 18.9375 c -0.0461,2.8895 1.719,4.70653 3.6875,5.65039 1.968501,0.94386 5.102409,0.87221 7.111329,-1.13672 L 114.42773,67.859375 c 2.14542,-2.145232 2.05495,-5.665767 -0.0293,-7.75 L 74.234375,19.947266 c -0.890129,-0.890129 -2.081087,-1.486412 -3.248047,-1.677735 z"
     id="path842" />
  <path
     inkscape:connector-curvature="0"
     style="fill:url(#linearGradient2360);fill-opacity:1;fill-rule:evenodd;stroke:none;stroke-width:8;stroke-linecap:round;stroke-linejoin:round;stroke-miterlimit:4;stroke-dasharray:none;stroke-opacity:1"
     d="M 71.407018,22.775148 111.56937,62.9375 c 0.58761,0.587606 0.59709,1.527908 0.0312,2.09375 L 72.0078,104.62402 c -1.488665,1.48867 -3.995647,0.003 -3.96973,-1.62146 V 80 h -54.5 c -0.831,0 -1.5,-0.63728 -1.5,-1.4375 l 14,-14.5625 -14,-14.5625 c 0,-0.800222 0.669,-1.4375 1.5,-1.4375 h 54.5 V 24.000277 c 0,-1.490389 2.087963,-2.506064 3.368898,-1.225129 z"
     id="rect2326"
     sodipodi:nodetypes="ccccccccccccccc" />
</svg>
